X: 10
T: Colonel McBain
Z: Kevin Le Bars
S: https://thesession.org/tunes/102#setting53326
R: reel
M: 4/4
L: 1/8
K: Edor
|:GEBEGEB2|FDADFDEF|GEBEGEB2|BADFDE2EF|
|GEBEGEB2|FDADFDEF|G2GGGBdB|ADFDE2EF:|
|:G2 GF GBdB|ABAG FADF|Beed efge|fedf ed (3Bcd|
efed BGdB|ABAG FADF|Beed efge|dBAF E2 EF:|

%-------------------- TUNE SEPARATOR --------------------%

